src/lib/packages/icons/src/assets/line/angles-up.svg

<svg width="24" height="24" viewBox="0 0 24 24" fill="none" xmlns="http://www.w3.org/2000/svg">
<path d="M4.46999 12.5301C4.17699 12.2371 4.17699 11.762 4.46999 11.469L11.47 4.46902C11.763 4.17602 12.238 4.17602 12.531 4.46902L19.531 11.469C19.824 11.762 19.824 12.2371 19.531 12.5301C19.385 12.6761 19.193 12.75 19.001 12.75C18.809 12.75 18.617 12.6771 18.471 12.5301L12.001 6.06008L5.53103 12.5301C5.23703 12.8231 4.76299 12.8231 4.46999 12.5301ZM12.5301 11.47C12.2371 11.177 11.762 11.177 11.469 11.47L4.46902 18.47C4.17602 18.763 4.17602 19.238 4.46902 19.531C4.76202 19.824 5.23705 19.824 5.53005 19.531L12 13.0611L18.47 19.531C18.616 19.677 18.808 19.751 19 19.751C19.192 19.751 19.3841 19.678 19.5301 19.531C19.8231 19.238 19.8231 18.763 19.5301 18.47L12.5301 11.47Z" fill="currentColor"/>
</svg>

<svg xmlns="http://www.w3.org/2000/svg" width="24" height="24" fill="none"><path fill="currentColor" d="M4.47 12.53a.75.75 0 0 1 0-1.061l7-7a.75.75 0 0 1 1.061 0l7 7a.75.75 0 0 1-1.06 1.061l-6.47-6.47-6.47 6.47a.75.75 0 0 1-1.061 0Zm8.06-1.06a.75.75 0 0 0-1.061 0l-7 7a.75.75 0 1 0 1.061 1.061l6.47-6.47 6.47 6.47a.748.748 0 0 0 1.06 0 .75.75 0 0 0 0-1.061l-7-7Z"/></svg>
